X: 202
T: Bahçeye Bar Diyemem
C: (Anonim)
O: Turkey
F: http://compmusic.upf.edu/node/140
N: zavil--turku--aksak--bahceye_bar--
N: makam= zavil
N: form= turku
N: usul= aksak = 9/8
M: 9/8
L: 1/16
K: C ^9/8f   
Q: 1/4=126
%%MIDI tuningsystem comma53
g3/2f/ef g2ga g3/2f/eg f2f2 f2 | f3/2e/ fdeg =feed d^cd2 e2^9/8f2  | 
w:  ARANAĞME  |   | 
g3/2f/ef g2ga g3/2f/eg f2f2 f2 | f3/2e/ fdeg =feed d^cd2 e2=c2  | 
w:   |   | 
Bc2c c2c2 c3/2B/A2 d2d4 | B3/2A/ BGA3/2c/ BAAG GFGA Bdc2  | 
w:   |   | 
Bc2c c2c2 c3/2B/A2 d2d4 | B3/2A/ BGA3/2c/ BAAG GFG3def  | 
w:   |   | 
g2fg g2g2 f2e2 f2g2 a2 | g2 g2f2 e2d4gf e2gf  | \
w:  *  Bah çe ye  bar  di *  ye *  mem    |  Ay va ya  nar  di ye  | 
f6fg f3/2e/de f3d ef | 
w:  mem   SAZ  | 
g2 fgg2 g2f2 e2f2 g2a2  | g2g2 f2{g}e2 d4 g2=f2 e2 | \
w:  *  Ben_ a lış tım  i *  yi *  ye    |  Kö tü ye  *  yâr  di ye *  mem    | 
d2 d^c_7/8B2 BAG4=B=c d2e2  | 
w:  Bağ lar  *  ga ze *  li   Me le ğim  de    | 
d2d^c _7/8B2BA G4 G2G2 G2 | d2 d^c_7/8B2 BAG4=B=c d2e2  | 
w:  Türk men  *  gü ze *  li   SAZ  |  Bağ lar  *  ga ze *  li   Me le ğim  de    | 
d2d^c _7/8B2BA G4 G6 | g3/2f/ efg2 gag3/2f/ egf2 f2f2  | 
w:  Türk men  *  gü ze *  li   SAZ  |  ARANAĞME  | 
f3/2e/fd eg=fe edd^c d2e2 ^9/8f2 | \
w:   | 
g3/2f/ efg2 gag3/2f/ egf2 f2f2  | 
w:   | 
f3/2e/fd eg=fe edd^c d2e2 =c2 | Bc2cc2 c2c3/2B/ A2d2 d4  | 
w:   |   | 
B3/2A/BG A3/2c/BA AGGF GABd c2 | Bc2cc2 c2c3/2B/ A2d2 d4  | 
w:   |   | 
B3/2A/BG A3/2c/BA AGGF G3d ef | g2 fgg2 g2f2 e2f2 g2a2  | 
w:   |  *  Bah çe ye  bar  di *  ye *  mem    | 
g2g2 f2e2 d4 gfe2 gf | f6 fgf3/2e/ def3def  | 
w:  Ay va ya  nar  di ye  |  mem   SAZ  | 
g2fg g2g2 f2e2 f2g2 a2 | g2 g2f2 {g}e2d4g2 =f2e2  | \
w:  *  Ben_ a lış tım  i *  yi *  ye    |  Kö tü ye  *  yâr  di ye *  mem    | 
d2d^c _7/8B2BA G4 =B=cd2 e2 | 
w:  Bağ lar  *  ga ze *  li   Me le ğim  de    | 
d2 d^c_7/8B2 BAG4G2 G2G2  | d2d^c _7/8B2BA G4 =B=cd2 e2 | 
w:  Türk men  *  gü ze *  li   SAZ  |  Bağ lar  *  ga ze *  li   Me le ğim  de    | 
d2 d^c_7/8B2 BAG4G6  | |


